X:125
T:Reel 125
M:4/4
K:Dmaj
L:1/8
A3G FAdB|AGFD EA, (3CB,A, |ABAG FAdc||dcBc dfed:||2ABde fed2|afbf afdf|afdf edce| (3fgf df  (3fga dB|ABde fdd2|afef dfaf|afdf  (3efe fe|afge fdec|BBAG FDD2|
